_includes/icons/ios-dropbox.svg

<svg fill="#666" height="50" viewBox="0 0 50 50" width="50" xmlns="http://www.w3.org/2000/svg"><path d="m15.5 1c-.15625.015625-.304687.070313-.4375.15625l-14.59375 9.40625c-.269531.175781-.4375.472656-.4492187.796875-.0117188.320313.1328127.628906.3867187.828125l8.9375 6.78125-8.9375 6.71875c-.277344.199219-.4375.527344-.4179688.871094.0195313.339844.2109378.648437.5117188.816406l8.5 5v6.71875c-.003906.335938.160156.652344.4375.84375l15 9.90625c.339844.230469.785156.230469 1.125 0l15-9.8125c.277344-.191406.441406-.507812.4375-.84375v-6.75l8.5-5.09375c.269531-.164062.445313-.445312.476563-.757812s-.085938-.625-.320313-.835938l-8.40625-7.125 8.375-6.84375c.25-.203125.390625-.515625.371094-.835937-.019531-.324219-.191406-.617188-.464844-.789063l-14.1875-9c-.203125-.132812-.445312-.1875-.6875-.15625-.183594.023438-.355469.101563-.5.21875l-9.125 7.59375-8.78125-7.5625c-.203125-.183594-.476562-.273437-.75-.25zm.03125 2.25 7.8125 6.71875-12.3125 7.8125-8.28125-6.3125zm19.34375 0 12.40625 7.84375-7.6875 6.28125-12.84375-7.4375zm-9.875 8.03125 12.75 7.34375-12.78125 8-12.09375-7.625zm14.59375 8.53125 7.71875 6.5625-7.625 4.5625-.09375.03125c-.089844.039063-.175781.09375-.25.15625l-4.65625 2.78125-7.9375-6.03125zm-28.53125.40625 12.1875 7.65625-7.71875 6.03125-12.71875-7.5zm13.96875 8.84375 8.96875 6.84375c.328125.25.773438.273438 1.125.0625l3.875-2.3125v5l-14 9.125-14-9.25v-4.96875l4.09375 2.40625c.359375.203125.804688.167969 1.125-.09375z"/></svg>

<svg xmlns="http://www.w3.org/2000/svg" viewBox="0 0 50 50" width="50" height="50" fill="#666"><path d="M 15.5 1 C 15.34375 1.015625 15.195313 1.070313 15.0625 1.15625 L 0.46875 10.5625 C 0.199219 10.738281 0.03125 11.035156 0.0195313 11.359375 C 0.0078125 11.679688 0.152344 11.988281 0.40625 12.1875 L 9.34375 18.96875 L 0.40625 25.6875 C 0.128906 25.886719 -0.03125 26.214844 -0.0117188 26.558594 C 0.0078125 26.898438 0.199219 27.207031 0.5 27.375 L 9 32.375 L 9 39.09375 C 8.996094 39.429688 9.160156 39.746094 9.4375 39.9375 L 24.4375 49.84375 C 24.777344 50.074219 25.222656 50.074219 25.5625 49.84375 L 40.5625 40.03125 C 40.839844 39.839844 41.003906 39.523438 41 39.1875 L 41 32.4375 L 49.5 27.34375 C 49.769531 27.179688 49.945313 26.898438 49.976563 26.585938 C 50.007813 26.273438 49.890625 25.960938 49.65625 25.75 L 41.25 18.625 L 49.625 11.78125 C 49.875 11.578125 50.015625 11.265625 49.996094 10.945313 C 49.976563 10.621094 49.804688 10.328125 49.53125 10.15625 L 35.34375 1.15625 C 35.140625 1.023438 34.898438 0.96875 34.65625 1 C 34.472656 1.023438 34.300781 1.101563 34.15625 1.21875 L 25.03125 8.8125 L 16.25 1.25 C 16.046875 1.066406 15.773438 0.976563 15.5 1 Z M 15.53125 3.25 L 23.34375 9.96875 L 11.03125 17.78125 L 2.75 11.46875 Z M 34.875 3.25 L 47.28125 11.09375 L 39.59375 17.375 L 26.75 9.9375 Z M 25 11.28125 L 37.75 18.625 L 24.96875 26.625 L 12.875 19 Z M 39.59375 19.8125 L 47.3125 26.375 L 39.6875 30.9375 L 39.59375 30.96875 C 39.503906 31.007813 39.417969 31.0625 39.34375 31.125 L 34.6875 33.90625 L 26.75 27.875 Z M 11.0625 20.21875 L 23.25 27.875 L 15.53125 33.90625 L 2.8125 26.40625 Z M 25.03125 29.0625 L 34 35.90625 C 34.328125 36.15625 34.773438 36.179688 35.125 35.96875 L 39 33.65625 L 39 38.65625 L 25 47.78125 L 11 38.53125 L 11 33.5625 L 15.09375 35.96875 C 15.453125 36.171875 15.898438 36.136719 16.21875 35.875 Z"/></svg>
